X: 19284
T: Ivy Leaf, The
R: reel
M: 4/4
K: Dmajor
~A2 eA cAeA|~A2ec dBGB|~A2 eA cAec|d2 BG EFGB|
~A2 eA cAec|Acec dBGB|Aced ~c2cA|BEED EFGB||
A2ag edBd|efge dBGB|A2ag edcA|BEED EFGB|
A2ag edcd|efge dBGB|~A3 B =cBcd|egfa gedB||

